X:2539
T:Help
O:england
M:6/8
L:1/8
Q:
K:G
D|BGBGBG|ABcBAG|FGAFGA|BcBAG2|BGBGBG|ABcBAG|ABcBAG|FGAFG3:|


